assets/svg/icon_profile_privacypolicy.svg

<svg width="24" height="24" viewBox="0 0 24 24" fill="none" xmlns="http://www.w3.org/2000/svg">
<path d="M13 15.8667C13 14.5876 13 13.9481 13.1468 13.733C13.2936 13.5178 13.8782 13.312 15.0475 12.9003L15.2702 12.8219C15.8797 12.6073 16.1845 12.5 16.5 12.5C16.8155 12.5 17.1203 12.6073 17.7298 12.8219L17.9525 12.9003C19.1218 13.312 19.7064 13.5178 19.8532 13.733C20 13.9481 20 14.5876 20 15.8667C20 16.0599 20 16.2694 20 16.4965C20 18.7518 18.3515 19.8462 17.3172 20.3109C17.0367 20.437 16.8964 20.5 16.5 20.5C16.1036 20.5 15.9633 20.437 15.6828 20.3109C14.6485 19.8462 13 18.7518 13 16.4965C13 16.2694 13 16.0599 13 15.8667Z" stroke="#0166FF" stroke-width="1.2"/>
<path d="M15.5 16.4999L16.2621 17.0332L17.5 15.5332" stroke="#0166FF" stroke-width="1.2" stroke-linecap="round" stroke-linejoin="round"/>
<path d="M11.4 20.6C11.7314 20.6 12 20.3314 12 20C12 19.6686 11.7314 19.4 11.4 19.4V20.6ZM18.8 10.4C18.8 10.7314 19.0686 11 19.4 11C19.7314 11 20 10.7314 20 10.4H18.8ZM8.5 10.4C8.16863 10.4 7.9 10.6686 7.9 11C7.9 11.3314 8.16863 11.6 8.5 11.6V10.4ZM12 11.6C12.3314 11.6 12.6 11.3314 12.6 11C12.6 10.6686 12.3314 10.4 12 10.4V11.6ZM8.5 7.2C8.16863 7.2 7.9 7.46863 7.9 7.8C7.9 8.13137 8.16863 8.4 8.5 8.4V7.2ZM14.9 8.4C15.2314 8.4 15.5 8.13137 15.5 7.8C15.5 7.46863 15.2314 7.2 14.9 7.2V8.4ZM8.5 13.4C8.16863 13.4 7.9 13.6686 7.9 14C7.9 14.3314 8.16863 14.6 8.5 14.6V13.4ZM10 14.6C10.3314 14.6 10.6 14.3314 10.6 14C10.6 13.6686 10.3314 13.4 10 13.4V14.6ZM11.4 4.6H13V3.4H11.4V4.6ZM5.6 13.6V10.4H4.4V13.6H5.6ZM11.4 19.4C9.87454 19.4 8.79081 19.3987 7.96868 19.2882C7.16381 19.18 6.70009 18.977 6.36152 18.6385L5.51299 19.487C6.11168 20.0857 6.87084 20.3514 7.80878 20.4775C8.72946 20.6013 9.90847 20.6 11.4 20.6V19.4ZM4.4 13.6C4.4 15.0915 4.39873 16.2705 4.52251 17.1912C4.64861 18.1292 4.9143 18.8883 5.51299 19.487L6.36152 18.6385C6.02295 18.2999 5.82002 17.8362 5.71181 17.0313C5.60127 16.2092 5.6 15.1255 5.6 13.6H4.4ZM13 4.6C14.5255 4.6 15.6092 4.60127 16.4313 4.71181C17.2362 4.82002 17.6999 5.02295 18.0385 5.36152L18.887 4.51299C18.2883 3.9143 17.5292 3.64861 16.5912 3.52251C15.6705 3.39873 14.4915 3.4 13 3.4V4.6ZM20 10.4C20 8.90847 20.0013 7.72946 19.8775 6.80878C19.7514 5.87084 19.4857 5.11168 18.887 4.51299L18.0385 5.36152C18.377 5.70009 18.58 6.16381 18.6882 6.96868C18.7987 7.79081 18.8 8.87454 18.8 10.4H20ZM11.4 3.4C9.90847 3.4 8.72946 3.39873 7.80878 3.52251C6.87084 3.64861 6.11168 3.9143 5.51299 4.51299L6.36152 5.36152C6.70009 5.02295 7.16381 4.82002 7.96868 4.71181C8.79081 4.60127 9.87454 4.6 11.4 4.6V3.4ZM5.6 10.4C5.6 8.87454 5.60127 7.79081 5.71181 6.96868C5.82002 6.16381 6.02295 5.70009 6.36152 5.36152L5.51299 4.51299C4.9143 5.11168 4.64861 5.87084 4.52251 6.80878C4.39873 7.72946 4.4 8.90847 4.4 10.4H5.6ZM8.5 11.6H12V10.4H8.5V11.6ZM8.5 8.4H14.9V7.2H8.5V8.4ZM8.5 14.6H10V13.4H8.5V14.6Z" fill="#0166FF"/>
</svg>

<svg xmlns="http://www.w3.org/2000/svg" width="24" height="24" fill="none"><path stroke="#0166FF" stroke-width="1.2" d="M13 15.867c0-1.28 0-1.919.147-2.134s.731-.421 1.9-.833l.223-.078c.61-.215.915-.322 1.23-.322.316 0 .62.107 1.23.322l.223.078c1.169.412 1.753.618 1.9.833s.147.855.147 2.134v.63c0 2.255-1.648 3.35-2.683 3.814-.28.126-.42.189-.817.189s-.537-.063-.817-.19C14.649 19.847 13 18.753 13 16.498z"/><path stroke="#0166FF" stroke-linecap="round" stroke-linejoin="round" stroke-width="1.2" d="m15.5 16.5.762.533 1.238-1.5"/><path fill="#0166FF" d="M11.4 20.6a.6.6 0 1 0 0-1.2zm7.4-10.2a.6.6 0 1 0 1.2 0zm-10.3 0a.6.6 0 1 0 0 1.2zm3.5 1.2a.6.6 0 1 0 0-1.2zM8.5 7.2a.6.6 0 0 0 0 1.2zm6.4 1.2a.6.6 0 1 0 0-1.2zm-6.4 5a.6.6 0 1 0 0 1.2zm1.5 1.2a.6.6 0 1 0 0-1.2zm1.4-10H13V3.4h-1.6zm-5.8 9v-3.2H4.4v3.2zm5.8 5.8c-1.525 0-2.61-.001-3.431-.112-.805-.108-1.269-.311-1.607-.65l-.849.849c.599.599 1.358.864 2.296.99.92.124 2.1.123 3.591.123zm-7-5.8c0 1.492-.001 2.67.123 3.591.126.938.391 1.697.99 2.296l.849-.848c-.34-.34-.542-.803-.65-1.608-.11-.822-.112-1.905-.112-3.431zm8.6-9c1.525 0 2.61.001 3.431.112.805.108 1.269.311 1.607.65l.849-.849c-.599-.599-1.358-.864-2.296-.99-.92-.124-2.1-.123-3.591-.123zm7 5.8c0-1.492.001-2.67-.122-3.591-.127-.938-.392-1.697-.991-2.296l-.849.849c.339.338.542.802.65 1.607.11.822.112 1.906.112 3.431zm-8.6-7c-1.492 0-2.67-.001-3.591.123-.938.126-1.697.391-2.296.99l.849.849c.338-.34.802-.542 1.607-.65.822-.11 1.906-.112 3.431-.112zm-5.8 7c0-1.525.001-2.61.112-3.431.108-.805.311-1.269.65-1.607l-.849-.849c-.599.599-.864 1.358-.99 2.296-.124.92-.123 2.1-.123 3.591zm2.9 1.2H12v-1.2H8.5zm0-3.2h6.4V7.2H8.5zm0 6.2H10v-1.2H8.5z"/></svg>
